!!!COM: Music21
!!!OTL: Foliada de Ribeira
!!!OMV: pezas_foliadas_foliada-de-ribeira_foliada-de-ribeira-partitura.musicxml
**kern
*I"Bagpipes
*I'Bag
*clefG^2
*k[]
*M3/4
=1
!LO:TX:a:t=Prestissimo
*MM220
!LO:TX:a:t=[quarter]=220
4.gg
8gg
4gg
=
4ee
4ff
4gg
=
2aa
[4aa
=
2.aa]
=
4.bb
8bb
4bb
=
4gg
4aa
4bb
=
4ccc
8bbL
8aaJ
4gg
=
4aa
4aa
4aa
=
4bb
8aaL
8ggJ
4ff
=
4gg
4gg
4gg
!!linebreak:original
=
4aa
8ggL
8ffJ
[4ee
=
2.ee]
=||
*M3/4
!LO:TX:a:t=Prestissimo
*MM220
!LO:TX:a:t=[quarter]=220
4.gg
8gg
4gg
=
4ee
4ff
4gg
=
2aa
[4aa
=
2.aa]
=
4.bb
8bb
4bb
=
4gg
4aa
4bb
=
4ccc
8bbL
8aaJ
4gg
=
4aa
4aa
4aa
!!linebreak:original
=
4bb
8aaL
8ggJ
4ff
=
4gg
4gg
4gg
=
4aa
8ggL
8ffJ
4ee
=
4ee
8cccL
8bbJ
8cccL
8aaJ
=||
8aaL
8ggJ
8ff#XL
8ggJ
8aaL
8ggJ
=
4ccc
8cccL
8bbJ
8cccL
8aaJ
=
8aaL
8ggJ
8ffL
8ggJ
8aaL
8ggJ
!!linebreak:original
=
4bb
8bbL
8aaJ
8bbL
8cccJ
=
4ddd
8dddL
8bbJ
8dddL
8bbJ
=
4ddd
8dddL
8bbJ
8dddL
8bbJ
=
4ddd
8dddL
8bbJ
8dddL
8bbJ
=
4ddd
8dddL
8bbJ
8dddL
8bbJ
=||
8aaL
8ggJ
8ff#XL
8ggJ
8aaL
8ggJ
=
4ccc
8cccL
8bbJ
8cccL
8aaJ
!!linebreak:original
=
8aaL
8ggJ
8ffL
8ggJ
8aaL
8ggJ
!!linebreak:original
=
4bb
8bbL
8aaJ
8bbL
8cccJ
=
4ddd
8dddL
8bbJ
8dddL
8bbJ
=
4ddd
8dddL
8bbJ
8dddL
8bbJ
=
4ddd
8dddL
8bbJ
8dddL
8bbJ
=
4ddd
4r
4gg
==
*-
